X: 266
T: Pa puoyio
%%abc-version 2.0
%%abcx-abcm2ps-target-version 5.9.1 (29 Sep 2008)
%%abc-creator hum2abc beta
%%abcx-conversion-date 2013/10/02 07:52:29
%%abc-edited-by Helmut Schaffrath
%%humdrum-veritas 1950945846
%%humdrum-veritas-data 2322561706
%%continueall 1
%%barnumbers 0
L: 1/8
M: 2/4
K: G
e> g e A [I:setbarnb 1]| 
g e d B | 
e d g B | 
A GE2 | 
B A B d | 
A EG2 | 
e> g e B | 
d4 |]  



